!!!!SEGMENT: pl-wtm--r-995--001-002_krogulski-jozef-wladyslaw--msza-pasterska-gloria.krn
!!!cenid: 18xx:2084
!!!COM: Krogulski, Józef Władysław
!!!COM-rismid: pe30001797
!!!CDT: 1815/10/04-1842/01/09
!!!CNT: Polish
!!!OPR: Msza pasterska
!!!OTL: Gloria
!!!OMV: 002
!!!PDT:
!!!AGN: Sacred; Mass
!!!SMS-siglum: PL-Wtm
!!!SMS-shelfmark: R 995
!!!SMS-shelfwork: 001-002 M
!!!SMS-variant:
!!!SMS-altvar:
!!!NIFC-rismid: 1001083272
!!!URL-scan: http://repozytorium.nifc.pl/skany/pl-wtm-nut--r995
!!!ONB-nifc: UWAGA: części Mszy: 1. Kyrie, 2. Gloria, 3. Graduale, 4. Credo, 5. Offertorium, 6. Sanctus, 7. Benedictus, 8. Agnus Dei, 9. Dona nobis
!!!OMD: Allegro.
**kern	**kern	**dynam	**kern	**text	**dynam	**kern	**text	**dynam	**kern	**text	**dynam	**kern	**text	**dynam
*part5	*part5	*part5	*part4	*part4	*part4	*part3	*part3	*part3	*part2	*part2	*part2	*part1	*part1	*part1
*staff6	*staff5	*	*staff4	*staff4	*	*staff3	*staff3	*	*staff2	*staff2	*	*staff1	*staff1	*
*Iempty	*Iorgan	*	*Iempty	*	*	*Itenor	*	*	*Isoprn	*	*	*Isoprn	*	*
*	*I"Organ	*	*I"Baſsi	*	*	*I"Tenore	*	*	*I"Soprano 2.	*	*	*I"Soprano 1.	*	*
*	*I'org	*	*I'B	*	*	*I'T	*	*	*I'S 2	*	*	*I'S 1	*	*
*	*	*	*	*	*	*ITrd7c12	*	*	*	*	*	*	*	*
*clefF4	*clefG2	*	*clefF4	*	*	*clefG2	*	*	*clefG2	*	*	*clefG2	*	*
*k[]	*k[]	*	*k[]	*	*	*k[]	*	*	*k[]	*	*	*k[]	*	*
*C:	*C:	*	*C:	*	*	*C:	*	*	*C:	*	*	*C:	*	*
*M4/4	*M4/4	*	*M4/4	*	*	*M4/4	*	*	*M4/4	*	*	*M4/4	*	*
*met(c)	*met(c)	*	*met(c)	*	*	*met(c)	*	*	*met(c)	*	*	*met(c)	*	*
=1	=1	=1	=1	=1	=1	=1	=1	=1	=1	=1	=1	=1	=1	=1
*all\right	*all\right	*	*all\right	*	*	*all\right	*	*	*all\right	*	*	*all\right	*	*
!	!	!LO:DY:rj	!	!	!LO:DY:b:rj	!	!	!LO:DY:b:rj	!	!	!LO:DY:b:rj	!	!	!LO:DY:b:rj
[<1CC [>1C	1e 1g 1cc	f	4.C/	.	f	4.G/	.	f	4.e/	.	f	4.cc\	Glo-	f
.	.	.	8C/	.	.	8G/	.	.	8e/	.	.	8cc\	-ri-	.
*	*	*	*	*	*	*	*	*	*	*	*	*2\right	*	*
.	.	.	2C/	.	.	2G/	.	.	2e/	.	.	2cc\	-a	.
=2	=2	=2	=2	=2	=2	=2	=2	=2	=2	=2	=2	=2	=2	=2
1CC_< 1C_>	1g 1cc 1ee	.	4.C/	.	.	4.c\	.	.	4.e/	.	.	4.ee\	Glo-	.
.	.	.	8C/	.	.	8c\	.	.	8e/	.	.	8ee\	-ri-	.
.	.	.	2C/	.	.	(>4c\	.	.	(<4e/	.	.	2ee\	-a	.
.	.	.	.	.	.	4B-X\)	.	.	4g/)	.	.	.	.	.
=3	=3	=3	=3	=3	=3	=3	=3	=3	=3	=3	=3	=3	=3	=3
*	*^	*	*	*	*	*	*	*	*	*	*	*	*	*
*	*	*2\right	*	*	*	*	*	*	*	*	*	*	*	*	*
1CC_< 1C_>	4gg/	2a\	.	4C/	.	.	4A/	.	.	4f/	.	.	4gg\	in	.
.	8ff/L	.	.	4C/	.	.	4A/	.	.	4f/	.	.	8ff\L	ex-	.
.	8ee/J	.	.	.	.	.	.	.	.	.	.	.	8ee\J	.	.
.	4dd/	4f\	.	4C/	.	.	4Bn\	.	.	4f/	.	.	4dd\	-cel-	.
.	8ee/L	8g\L	.	4C/	.	.	4B\	.	.	8g/L	.	.	8ee\L	.	.
.	8dd/J	8f\J	.	.	.	.	.	.	.	8f/J	.	.	8dd\J	-sis	.
*	*v	*v	*	*	*	*	*	*	*	*	*	*	*	*	*
=4	=4	=4	=4	=4	=4	=4	=4	=4	=4	=4	=4	=4	=4	=4
2CC/] 2C]	4e\ 4cc	.	4C/	.	.	4c\	.	.	4e/	.	.	4cc\	De-	.
.	4e/ 4g	.	4C/	.	.	4c\	.	.	4e/	.	.	4g/	-o	.
2r	4g\ 4gg	.	2r	.	.	4g\	.	.	2r	.	.	4gg\	in	.
.	4g\ 4gg	.	.	.	.	4g\	.	.	.	.	.	4gg\	ex-	.
=5	=5	=5	=5	=5	=5	=5	=5	=5	=5	=5	=5	=5	=5	=5
*^	*^	*	*	*	*	*	*	*	*	*	*	*	*	*
4f/	[<1G	[>1gg	4dd\	.	4G\	in	.	4f\	-cel-	.	4dd\	in	.	[>1gg	-cel-	.
4d/	.	.	4b\	.	4G\	ex-	.	4d\	.	.	4b\	ex-	.	.	.	.
*	*	*	*	*	*2\right	*	*	*	*	*	*	*	*	*	*	*
4e/	.	.	4cc\	.	[>2G\	-cel-	.	4e\	.	.	4cc\	-cel-	.	.	.	.
4c/	.	.	4ee\	.	.	.	.	4c\	.	.	4ee\	.	.	.	.	.
=6	=6	=6	=6	=6	=6	=6	=6	=6	=6	=6	=6	=6	=6	=6	=6	=6
4B/	1G_<	1gg_>	4ff\	.	1G_>	.	.	4B\	.	.	4ff\	.	.	1gg_>	.	.
4d/	.	.	4dd\	.	.	.	.	4d\	.	.	4dd\	.	.	.	.	.
4c/	.	.	4ee\	.	.	.	.	4c\	.	.	4ee\	.	.	.	.	.
4e/	.	.	4cc\	.	.	.	.	4e\	.	.	4cc\	.	.	.	.	.
=7	=7	=7	=7	=7	=7	=7	=7	=7	=7	=7	=7	=7	=7	=7	=7	=7
4f/	1G_<	1gg_>	4b\	.	2.G\]	.	.	4f\	.	.	4b\	.	.	2.gg\]	.	.
4d/	.	.	4g\	.	.	.	.	4d\	.	.	4g\	.	.	.	.	.
4e/	.	.	4cc\	.	.	.	.	4e\	.	.	4cc\	.	.	.	.	.
4c/	.	.	4ee\	.	4G\	-sis	.	4c\	-sis	.	4ee\	-sis	.	4gg\	-sis	.
=8	=8	=8	=8	=8	=8	=8	=8	=8	=8	=8	=8	=8	=8	=8	=8	=8
*	*2\right	*	*	*	*	*	*	*	*	*	*	*	*	*	*	*
4B/	2G\]	2gg/]	4dd\	.	2G\	De-	.	(>4B\	De-	.	(>4dd\	De-	.	[>2gg\	De-	.
4c/	.	.	4ee\	.	.	.	.	4c\)	.	.	4ee\)	.	.	.	.	.
4B/	4G\	8gg/L	4dd\	.	4G\	-o	.	4B\	-o	.	4dd\	-o	.	8gg\L]	.	.
.	.	8ff/	.	.	.	.	.	.	.	.	.	.	.	8ff\J	.	.
4r	4ryy	8ee/	4r	.	4r	.	.	4r	.	.	4r	.	.	8ee\L	-o	.
.	.	8dd/J	.	.	.	.	.	.	.	.	.	.	.	8dd\J	.	.
*v	*v	*	*	*	*	*	*	*	*	*	*	*	*	*	*	*
*	*v	*v	*	*	*	*	*	*	*	*	*	*	*	*	*
!!LO:PB:g=original
=9	=9	=9	=9	=9	=9	=9	=9	=9	=9	=9	=9	=9	=9	=9
[<1EE [>1C	1e 1g 1cc	.	4.C/	.	.	4.G/	Glo-	.	4.e/	.	.	4.cc\	Glo-	.
.	.	.	8C/	.	.	8G/	-ri-	.	8e/	.	.	8cc\	-ri-	.
.	.	.	2C/	.	.	2G/	-a	.	2e/	.	.	2cc\	-a	.
=10	=10	=10	=10	=10	=10	=10	=10	=10	=10	=10	=10	=10	=10	=10
1EE_< 1C_>	1g 1cc 1ee	.	4.C/	.	.	4.c\	Glo-	.	4.e/	.	.	4.ee\	Glo-	.
.	.	.	8C/	.	.	8c\	-ri-	.	8e/	.	.	8ee\	-ri-	.
.	.	.	2C/	.	.	(>4c\	-a	.	(<4e/	.	.	2ee\	-a	.
.	.	.	.	.	.	4B-X\)	.	.	4g/)	.	.	.	.	.
=11	=11	=11	=11	=11	=11	=11	=11	=11	=11	=11	=11	=11	=11	=11
*	*^	*	*	*	*	*	*	*	*	*	*	*	*	*
1EE_< 1C_>	4gg/	2a\	.	4C/	.	.	4A/	in	.	4f/	.	.	4gg\	in	.
.	8ff/L	.	.	4C/	.	.	4A/	ex-	.	4f/	.	.	8ff\L	ex-	.
.	8ee/J	.	.	.	.	.	.	.	.	.	.	.	8ee\J	.	.
.	4f\ 4dd	2ryy	.	4C/	.	.	4Bn\	.	.	4f/	.	.	4dd\	-cel-	.
.	8g\L 8ee	.	.	4C/	.	.	4B\	-cel-	.	8g/L	.	.	8ee\L	-sis	.
.	8f\J 8dd	.	.	.	.	.	.	.	.	8f/J	.	.	8dd\J	.	.
*	*v	*v	*	*	*	*	*	*	*	*	*	*	*	*	*
=12	=12	=12	=12	=12	=12	=12	=12	=12	=12	=12	=12	=12	=12	=12
2EE/] 2C]	4e\ 4cc	.	4C/	.	.	4c\	-sis	.	4e/	.	.	4cc\	De-	.
.	4e/ 4g	.	4C/	.	.	4c\	.	.	4e/	.	.	4g/	-o	.
2r	4e\ 4ee	.	2r	.	.	4e\	De-	.	2r	.	.	4ee\	in	.
.	4e\ 4ee	.	.	.	.	4e\	-o	.	.	.	.	4ee\	ex-	.
=13	=13	=13	=13	=13	=13	=13	=13	=13	=13	=13	=13	=13	=13	=13
*^	*^	*	*	*	*	*	*	*	*	*	*	*	*	*
4d/	1E	[>1ee	4b\	.	4E\	in	.	4d\	in	.	4b\	in	.	[>1ee	-cel-	.
4B/	.	.	4g#X\	.	4E\	ex-	.	4B\	ex-	.	4g#X\	ex-	.	.	.	.
4c/	.	.	4a\	.	[>2E\	-cel-	.	4c\	-cel-	.	(>4a\	-cel-	.	.	.	.
4A/	.	.	4cc\	.	.	.	.	4A\	.	.	4cc\)	.	.	.	.	.
=14	=14	=14	=14	=14	=14	=14	=14	=14	=14	=14	=14	=14	=14	=14	=14	=14
4G#X/	2E\	1ee]	4dd\	.	2E\]	.	.	4G#X\	.	.	4dd\	.	.	1ee_>	.	.
4B/	.	.	4b\	.	.	.	.	4B\	.	.	4b\	.	.	.	.	.
4A/	2A\	.	4cc\	.	2A\	.	.	4A\	.	.	4cc\	.	.	.	.	.
4c/	.	.	4a\	.	.	.	.	4c\	.	.	4a\	.	.	.	.	.
=15	=15	=15	=15	=15	=15	=15	=15	=15	=15	=15	=15	=15	=15	=15	=15	=15
4B/	4D\	8ee/L	2gn\	.	4D\	.	.	4B\	.	.	2gn/	.	.	8ee\L]	.	.
.	.	8dd/	.	.	.	.	.	.	.	.	.	.	.	8dd\	.	.
2Gn/	4E\	8cc/	.	.	4E\	.	.	2Gn/	.	.	.	.	.	8cc\	.	.
.	.	8b/J	.	.	.	.	.	.	.	.	.	.	.	8b\J	.	.
.	4C\	4a/	4e\	.	4C\	.	.	.	.	.	4e/	.	.	4a/	.	.
4D\ 4d	4ryy	4dd/	4f#X\	.	4D\	-sis	.	4d\	-sis	.	4f#X/	-sis	.	4dd\	-sis	.
*v	*v	*	*	*	*	*	*	*	*	*	*	*	*	*	*	*
*	*v	*v	*	*	*	*	*	*	*	*	*	*	*	*	*
=16	=16	=16	=16	=16	=16	=16	=16	=16	=16	=16	=16	=16	=16	=16
4G\ 4d	4g/ 4b	.	4G\	De-	.	4d\	De-	.	4g/	De-	.	4b/	De-	.
4G\ 4B	4g/	.	4G\	-o	.	4B\	-o	.	4g/	-o	.	4g/	-o	.
2r	2r	.	4d\	.	.	4d\	et	.	2r	.	.	2r	.	.
.	.	.	4d\	.	.	4d\	in	.	.	.	.	.	.	.
=17	=17	=17	=17	=17	=17	=17	=17	=17	=17	=17	=17	=17	=17	=17
[<1GG [>1D	1A 1c 1f#X	.	4d\	.	.	4d\	ter-	.	1r	.	.	1r	.	.
.	.	.	8c\L	.	.	8c\L	-ra	.	.	.	.	.	.	.
.	.	.	8B\J	.	.	8B\J	.	.	.	.	.	.	.	.
.	.	.	4A\	.	.	4A\	pax	.	.	.	.	.	.	.
.	.	.	8B\L	.	.	8B\L	ho-	.	.	.	.	.	.	.
.	.	.	8A\J	.	.	8A\J	.	.	.	.	.	.	.	.
=18	=18	=18	=18	=18	=18	=18	=18	=18	=18	=18	=18	=18	=18	=18
1GG_< 1D_>	1B 1g	.	4G\	.	.	4G/	-mi-	.	1r	.	.	1r	.	.
.	.	.	8F#X\L	.	.	8F#X/L	-ni-	.	.	.	.	.	.	.
.	.	.	8E\J	.	.	8E/J	.	.	.	.	.	.	.	.
.	.	.	2D\	.	.	2D/	-bus	.	.	.	.	.	.	.
!!LO:LB:g=original
=19	=19	=19	=19	=19	=19	=19	=19	=19	=19	=19	=19	=19	=19	=19
1GG] 1D_>	2A/ 2c 2f#X	.	4D\	.	.	4D/	bo-	.	1r	.	.	1r	.	.
.	.	.	8E\L	.	.	8E/L	-ne	.	.	.	.	.	.	.
.	.	.	8F#X\J	.	.	8F#X/J	.	.	.	.	.	.	.	.
.	2B/ 2g	.	4G\	.	.	4G/	vo-	.	.	.	.	.	.	.
!	!	!	!	!	!	!LO:SIC:v:l:s=-lun-	!	!	!	!	!	!	!	!
.	.	.	4B\	.	.	4B/	-lum-	.	.	.	.	.	.	.
=20	=20	=20	=20	=20	=20	=20	=20	=20	=20	=20	=20	=20	=20	=20
1DD 1D_	1d 1f#X 1a	.	[>1d	.	.	[>1d	-ta-	.	2r	.	.	2r	.	.
.	.	.	.	.	.	.	.	.	4dd\	.	.	4dd\	et	.
.	.	.	.	.	.	.	.	.	4dd\	.	.	4dd\	in	.
=21	=21	=21	=21	=21	=21	=21	=21	=21	=21	=21	=21	=21	=21	=21
[<1GG 1D_>	1A 1c 1f#X	.	1d_>	.	.	1d_>	.	.	4dd\	.	.	4dd\	ter-	.
.	.	.	.	.	.	.	.	.	8cc\L	.	.	8cc\L	-ra	.
.	.	.	.	.	.	.	.	.	8b\J	.	.	8b\J	.	.
.	.	.	.	.	.	.	.	.	4a/	.	.	4a/	pax	.
.	.	.	.	.	.	.	.	.	8b/L	.	.	8b/L	ho-	.
.	.	.	.	.	.	.	.	.	8a/J	.	.	8a/J	.	.
=22	=22	=22	=22	=22	=22	=22	=22	=22	=22	=22	=22	=22	=22	=22
1GG_< 1D_>	1B 1g	.	1d_>	.	.	1d_>	.	.	4g/	.	.	4g/	-mi-	.
.	.	.	.	.	.	.	.	.	8f#X/L	.	.	8f#X/L	-ni-	.
.	.	.	.	.	.	.	.	.	8e/J	.	.	8e/J	.	.
.	.	.	.	.	.	.	.	.	2d/	.	.	2d/	-bus	.
=23	=23	=23	=23	=23	=23	=23	=23	=23	=23	=23	=23	=23	=23	=23
1GG] 1D]	1A 1c 1f#X	.	4d\]	.	.	1d]	.	.	4d/	.	.	4d/	bo-	.
.	.	.	8c\L	.	.	.	.	.	8f#X/L	.	.	8f#X/L	-ne	.
.	.	.	8B\J	.	.	.	.	.	8g/J	.	.	8g/J	.	.
.	.	.	4A\	.	.	.	.	.	4a/	.	.	4a/	vo-	.
!	!	!	!	!	!	!	!	!	!	!	!	!LO:SIC:v:l:s=-lun-	!	!
.	.	.	4F#X\	.	.	.	.	.	8cc\L	.	.	8cc\L	-lum-	.
.	.	.	.	.	.	.	.	.	8b\J	.	.	8b\J	.	.
=24	=24	=24	=24	=24	=24	=24	=24	=24	=24	=24	=24	=24	=24	=24
[<1GG	2B/ 2g	.	4G\	-tis	.	4G/	-tis	.	2g/	.	.	2g/	-ta-	.
.	.	.	4G\	Lau-	.	4r	.	.	.	.	.	.	.	.
*	*clefF4	*	*	*	*	*	*	*	*	*	*	*	*	*
.	2G\ 2B	.	4B\	-da-	.	2r	.	.	4g/	.	.	4g/	-tis	.
.	.	.	4e\	-mus	.	.	.	.	4r	.	.	4r	.	.
=25	=25	=25	=25	=25	=25	=25	=25	=25	=25	=25	=25	=25	=25	=25
1GG]	2F#X\ 2d	.	2d\	te	.	1r	.	.	1r	.	.	1r	.	.
.	2E\ 2c	.	4c\	Be-	.	.	.	.	.	.	.	.	.	.
.	.	.	4c\	-ne-	.	.	.	.	.	.	.	.	.	.
=26	=26	=26	=26	=26	=26	=26	=26	=26	=26	=26	=26	=26	=26	=26
*	*^	*	*	*	*	*	*	*	*	*	*	*	*	*
2GG/	2B/	4D\	.	2B\	-di-	.	1r	.	.	1r	.	.	1r	.	.
.	.	4E\	.	.	.	.	.	.	.	.	.	.	.	.	.
2FF#X/	2A#X/	2F#X\	.	4A#X\	-ci-	.	.	.	.	.	.	.	.	.	.
.	.	.	.	4A#\	-mus	.	.	.	.	.	.	.	.	.	.
*	*v	*v	*	*	*	*	*	*	*	*	*	*	*	*	*
=27	=27	=27	=27	=27	=27	=27	=27	=27	=27	=27	=27	=27	=27	=27
[>1BB	1D 1B	.	2.B\	te	.	4r	.	.	1r	.	.	1r	.	.
.	.	.	.	.	.	4B\	Lau-	.	.	.	.	.	.	.
.	.	.	.	.	.	4d\	-da-	.	.	.	.	.	.	.
.	.	.	4B\	Lau-	.	4g\	-mus	.	.	.	.	.	.	.
=28	=28	=28	=28	=28	=28	=28	=28	=28	=28	=28	=28	=28	=28	=28
*	*	*	*	*	*	*2\right	*	*	*	*	*	*	*	*
1BB_>	2E\ 2A#X	.	(>1A#X	-da-	.	2f#X\	te	.	1r	.	.	1r	.	.
.	2A#\ 2c#X	.	.	.	.	4e\	Be-	.	.	.	.	.	.	.
.	.	.	.	.	.	4e\	-ne-	.	.	.	.	.	.	.
!!LO:PB:g=original
=29	=29	=29	=29	=29	=29	=29	=29	=29	=29	=29	=29	=29	=29	=29
!LO:TX:t=P:problem:brak zakończenia ligatury	!	!	!	!	!	!	!	!	!	!	!	!	!	!
4BB/]	4B\ 4d	.	4B\	.	.	(>4d\	-di-	.	1r	.	.	1r	.	.
4C/	4An\ 4cn	.	4c\	.	.	4c\)	.	.	.	.	.	.	.	.
4D/	4G\ 4B	.	4d\)	.	.	4B\	-ci-	.	.	.	.	.	.	.
4DD/	4F#X\ 4A	.	4F#X\	-mus	.	4A\	-mus	.	.	.	.	.	.	.
=30	=30	=30	=30	=30	=30	=30	=30	=30	=30	=30	=30	=30	=30	=30
*	*	*	*	*ij	*	*	*	*	*	*	*	*	*	*
[<1GG [>1G	4G\	.	4G\	te	.	4B\	te	.	4r	.	.	4r	.	.
*	*clefG2	*	*	*	*	*	*	*	*	*	*	*	*	*
.	4g\	.	4G\	Lau-	.	4B\	Lau-	.	4g/	.	.	4g/	Lau-	.
.	4g\ 4b	.	4G\	-da-	.	4B\	-da-	.	4g/	.	.	4b/	-da-	.
.	4g\ 4ee	.	4G\	-mus	.	4B\	-mus	.	4g/	.	.	4ee\	-mus	.
=31	=31	=31	=31	=31	=31	=31	=31	=31	=31	=31	=31	=31	=31	=31
*	*^	*	*	*	*	*	*	*	*	*	*	*	*	*
1GG_< 1G_>	2dd/	4f#X\	.	2G\	te	.	2c\	te	.	(<4f#X/	.	.	2dd\	te	.
.	.	8g\L	.	.	.	.	.	.	.	8g/L	.	.	.	.	.
.	.	8f#\J	.	.	.	.	.	.	.	8f#/J)	.	.	.	.	.
.	4a/	4e\	.	4G\	Be-	.	4c\	Be-	.	4e/	.	.	4a/	Be-	.
.	4dd/	4f#\	.	4G\	-ne-	.	8d\L	-ne-	.	4f#/	.	.	4dd\	-ne-	.
.	.	.	.	.	.	.	8c\J	.	.	.	.	.	.	.	.
*	*v	*v	*	*	*	*	*	*	*	*	*	*	*	*	*
=32	=32	=32	=32	=32	=32	=32	=32	=32	=32	=32	=32	=32	=32	=32
1GG_< 1G_>	4g\ 4b	.	2G\	-di-	.	2B\	-di-	.	2g/	.	.	(>4b\	-di-	.
.	4g\	.	.	.	.	.	.	.	.	.	.	4g\)	.	.
.	4g\ 4b	.	4G\	-ci-	.	4B\	-ci-	.	4g/	.	.	4b\	-ci-	.
.	4g\ 4ee	.	4G\	-mus	.	4B\	-mus	.	4g/	.	.	4ee\	-mus	.
=33	=33	=33	=33	=33	=33	=33	=33	=33	=33	=33	=33	=33	=33	=33
*	*^	*	*	*	*	*	*	*	*	*	*	*	*	*
1GG_< 1G_>	2dd/	4f#X\	.	2G\	te	.	2c\	te	.	(<4f#X/	.	.	2dd\	te	.
.	.	8g\L	.	.	.	.	.	.	.	8g/L	.	.	.	.	.
.	.	8f#\J	.	.	.	.	.	.	.	8f#/J)	.	.	.	.	.
.	4a/	4e\	.	4G\	A-	.	4c\	A-	.	4e/	.	.	4a\	A-	.
.	4dd/	4f#\	.	4G\	-do-	.	8d\L	-do-	.	4f#/	.	.	4dd\	-do-	.
.	.	.	.	.	.	.	8c\J	.	.	.	.	.	.	.	.
*	*v	*v	*	*	*	*	*	*	*	*	*	*	*	*	*
=34	=34	=34	=34	=34	=34	=34	=34	=34	=34	=34	=34	=34	=34	=34
1GG] 1G]	[<1g [>1b	.	2.G\	-ra-	.	2.B\	-ra-	.	2.g/	.	.	2.b\	-ram-	.
.	.	.	4G\	-mus	.	4B\	-mus	.	4g/	.	.	4b\	-us	.
=35	=35	=35	=35	=35	=35	=35	=35	=35	=35	=35	=35	=35	=35	=35
1EE 1E	1g] 1b]	.	4E\	te	.	4e\	te	.	4g/	.	.	4b\	te	.
.	.	.	4E\	Glo-	.	4e\	Glo-	.	4g/	.	.	4b\	Glo-	.
.	.	.	4E\	-ri-	.	4e\	-ri-	.	4g/	.	.	4b\	-ri-	.
.	.	.	4E\	-fi	.	4e\	-fi	.	4g/	.	.	4b\	-fi-	.
*	*	*	*	*Xij	*	*	*	*	*	*	*	*	*	*
=36	=36	=36	=36	=36	=36	=36	=36	=36	=36	=36	=36	=36	=36	=36
2CC/ 2C	2e/ 2g 2a	.	2C/	.	.	2e\	.	.	2g/	.	.	2a/	-ca-	.
2DD/ 2D	2d/ 2f#X 2a	.	2D/	.	.	2d\	.	.	2f#X/	.	.	2a/	-mus	.
=37	=37	=37	=37	=37	=37	=37	=37	=37	=37	=37	=37	=37	=37	=37
2GG;>\ 2G	2d;>/ 2g 2b	.	2G;>\	.	.	2d;>\	.	.	2g;>/	.	.	2b;>\	te	.
2r;>	2r;>	.	2r;>	.	.	2r;>	.	.	2r;>	.	.	2r;>	.	.
=38	=38	=38	=38	=38	=38	=38	=38	=38	=38	=38	=38	=38	=38	=38
[<1CC [>1C	1e 1g 1cc	.	4.C/	.	.	4.G/	.	.	4.e/	.	.	4.cc\	Quo-	.
.	.	.	8C/	.	.	8G/	.	.	8e/	.	.	8cc\	-ni-	.
.	.	.	2C/	.	.	2G/	.	.	2e/	.	.	2cc\	-am	.
!!LO:LB:g=original
=39	=39	=39	=39	=39	=39	=39	=39	=39	=39	=39	=39	=39	=39	=39
1CC_< 1C_>	1g 1cc 1ee	.	4.C/	.	.	4.c\	.	.	4.e/	.	.	4.ee\	Quo-	.
.	.	.	8C/	.	.	8c\	.	.	8e/	.	.	8ee\	-ni-	.
.	.	.	4C/	.	.	4c\	.	.	4e/	.	.	4ee\	-am	.
.	.	.	4C/	.	.	4B-X\	.	.	4g/	.	.	4ee\	tu	.
=40	=40	=40	=40	=40	=40	=40	=40	=40	=40	=40	=40	=40	=40	=40
*	*^	*	*	*	*	*	*	*	*	*	*	*	*	*
1CC_< 1C_>	4gg/	2a\	.	2C/	.	.	2A/	.	.	2.f/	.	.	4gg\	so-	.
.	8ff/L	.	.	.	.	.	.	.	.	.	.	.	8ff\L	.	.
.	8ee/J	.	.	.	.	.	.	.	.	.	.	.	8ee\J	.	.
.	4dd/	4f\	.	2C/	.	.	2Bn\	.	.	.	.	.	4dd\	.	.
.	8ee/L	8g\L	.	.	.	.	.	.	.	8g/L	.	.	8ee\L	-lus	.
.	8dd/J	8f\J	.	.	.	.	.	.	.	8f/J	.	.	8dd\J	.	.
*	*v	*v	*	*	*	*	*	*	*	*	*	*	*	*	*
=41	=41	=41	=41	=41	=41	=41	=41	=41	=41	=41	=41	=41	=41	=41
2CC/] 2C]	4e\ 4cc	.	8.C/	.	.	8.c\	.	.	8.e/	.	.	8.cc\	Do-	.
.	.	.	16C/	.	.	16c\	.	.	16e/	.	.	16g/	-mi-	.
.	4e/ 4g	.	4C/	.	.	4c\	.	.	4e/	.	.	4g/	-nus	.
2r	4g\ 4gg	.	4r	.	.	4r	.	.	4r	.	.	4r	.	.
.	4g\ 4gg	.	4G\	.	.	4g\	so-	.	4g/	.	.	4gg\	tu	.
=42	=42	=42	=42	=42	=42	=42	=42	=42	=42	=42	=42	=42	=42	=42
*^	*^	*	*	*	*	*	*	*	*	*	*	*	*	*
4f/	[<1G	[>1gg	4dd\	.	[>1G	.	.	(>4f\	.	.	(>4dd\	.	.	[>1gg	so-	.
4d/	.	.	4b\	.	.	.	.	4d\	.	.	4b\	.	.	.	.	.
4e/	.	.	4cc\	.	.	.	.	4e\	.	.	4cc\	.	.	.	.	.
4c/	.	.	4ee\	.	.	.	.	4c\	.	.	4ee\	.	.	.	.	.
=43	=43	=43	=43	=43	=43	=43	=43	=43	=43	=43	=43	=43	=43	=43	=43	=43
4B/	1G_<	1gg_>	4ff\	.	2G\]	.	.	4B\	.	.	4ff\	.	.	2gg\]	.	.
4d/	.	.	4dd\	.	.	.	.	4d\)	.	.	4dd\)	.	.	.	.	.
4c/	.	.	4ee\	.	4G\	.	.	4c\	-lus	.	4ee\	.	.	4gg\	-lus	.
4e/	.	.	4cc\	.	4G\	.	.	4e\	al-	.	4cc\	.	.	4gg\	al-	.
=44	=44	=44	=44	=44	=44	=44	=44	=44	=44	=44	=44	=44	=44	=44	=44	=44
4f/	1G]	1gg_>	4b\	.	[1G	.	.	(>4f\	-ti-	.	(>4b\	.	.	[>1gg	-ti-	.
4d/	.	.	4g\	.	.	.	.	4d\	.	.	4g\	.	.	.	.	.
4e/	.	.	4cc\	.	.	.	.	4e\	.	.	4cc\	.	.	.	.	.
4c/	.	.	4ee\	.	.	.	.	4c\	.	.	4ee\	.	.	.	.	.
=45	=45	=45	=45	=45	=45	=45	=45	=45	=45	=45	=45	=45	=45	=45	=45	=45
!	!	!	!	!	!LO:TX:t=P:problem:korekta	!	!	!	!	!	!	!	!	!	!	!
4B/	2G\	2gg/_>	4dd\	.	4G\]	.	.	4B\)	.	.	4dd\)	.	.	2gg\]	.	.
4c/	.	.	4ee\	.	4G\	.	.	4c\	-si-	.	4ee\	.	.	.	.	.
4B/	4G\	8gg/L]	4dd\	.	4G\	.	.	4B\	-mus	.	4dd\	.	.	8gg\L	-ssi-	.
.	.	8ff/	.	.	.	.	.	.	.	.	.	.	.	8ff\J	.	.
4r	4ryy	8ee/	4r	.	4r	.	.	4r	.	.	4r	.	.	8ee\L	-mus	.
.	.	8dd/J	.	.	.	.	.	.	.	.	.	.	.	8dd\J	.	.
*v	*v	*	*	*	*	*	*	*	*	*	*	*	*	*	*	*
*	*v	*v	*	*	*	*	*	*	*	*	*	*	*	*	*
=46	=46	=46	=46	=46	=46	=46	=46	=46	=46	=46	=46	=46	=46	=46
[<1CC [>1C	1e 1g 1cc	.	4.C/	.	.	4.G/	.	.	4.e/	.	.	4.cc\	Quo-	.
.	.	.	8C/	.	.	8G/	.	.	8e/	.	.	8cc\	-ni-	.
.	.	.	2C/	.	.	2G/	.	.	2e/	.	.	2cc\	-am	.
=47	=47	=47	=47	=47	=47	=47	=47	=47	=47	=47	=47	=47	=47	=47
1CC_< 1C_>	1g 1cc 1ee	.	4.C/	.	.	4.c\	.	.	4.e/	.	.	4.ee\	Quo-	.
.	.	.	8C/	.	.	8c\	.	.	8e/	.	.	8ee\	-ni-	.
.	.	.	4C/	.	.	4c\	.	.	4e/	.	.	4ee\	-am	.
.	.	.	4C/	.	.	4B-X\	.	.	4g/	.	.	4ee\	tu	.
=48	=48	=48	=48	=48	=48	=48	=48	=48	=48	=48	=48	=48	=48	=48
*	*^	*	*	*	*	*	*	*	*	*	*	*	*	*
1CC_< 1C_>	4gg/	2a\	.	2C/	.	.	2A/	.	.	2.f/	.	.	4gg\	so-	.
.	8ff/L	.	.	.	.	.	.	.	.	.	.	.	8ff\L	.	.
.	8ee/J	.	.	.	.	.	.	.	.	.	.	.	8ee\J	.	.
.	4dd/	4f\	.	2C/	.	.	2Bn\	.	.	.	.	.	4dd\	.	.
.	8ee/L	8g\L	.	.	.	.	.	.	.	8g/L	.	.	8ee\L	-lus	.
.	8dd/J	8f\J	.	.	.	.	.	.	.	8f/J	.	.	8dd\J	.	.
*	*v	*v	*	*	*	*	*	*	*	*	*	*	*	*	*
!!LO:PB:g=original
=49	=49	=49	=49	=49	=49	=49	=49	=49	=49	=49	=49	=49	=49	=49
!LO:TX:t=P:problem:brak zakończenia ligatury	!	!	!	!	!	!	!	!	!	!	!	!	!	!
2CC/] 2C]	4e\ 4cc	.	8.C/	.	.	8.c\	.	.	8.e/	.	.	8.cc\	Do-	.
.	.	.	16C/	.	.	16c\	.	.	16e/	.	.	16g/	-mi-	.
.	4e\ 4g	.	4C/	.	.	4c\	.	.	4e/	.	.	4g/	-nus	.
2r	4e\ 4ee	.	4r	.	.	4r	.	.	4r	.	.	4r	.	.
.	4e\ 4ee	.	4E\	.	.	4e\	.	.	4e/	.	.	4ee\	tu	.
=50	=50	=50	=50	=50	=50	=50	=50	=50	=50	=50	=50	=50	=50	=50
*^	*^	*	*	*	*	*	*	*	*	*	*	*	*	*
4d/	[<1E	[>1ee	4b\	.	[>1E	.	.	(>4d\	.	.	(>4b\	.	.	[>1ee	so-	.
4B/	.	.	4g#X\	.	.	.	.	4B\	.	.	4g#X\	.	.	.	.	.
4c/	.	.	4a\	.	.	.	.	4c\	.	.	4a\	.	.	.	.	.
4A/	.	.	4cc\	.	.	.	.	4A\	.	.	4cc\	.	.	.	.	.
=51	=51	=51	=51	=51	=51	=51	=51	=51	=51	=51	=51	=51	=51	=51	=51	=51
4G#X/	1E_<	1ee_>	4dd\	.	2E\]	.	.	4G#X\	.	.	4dd\	.	.	2ee\]	.	.
4B/	.	.	4b\	.	.	.	.	4B\)	.	.	4b\)	.	.	.	.	.
4A/	.	.	4cc\	.	4E\	.	.	4A\	.	.	4cc\	.	.	4ee\	-lus	.
4c/	.	.	4a\	.	4E\	.	.	4c\	.	.	4a\	.	.	4ee\	al-	.
=52	=52	=52	=52	=52	=52	=52	=52	=52	=52	=52	=52	=52	=52	=52	=52	=52
4d/	1E_<	1ee_>	4g#X\	.	1E	.	.	4d\	.	.	4g#X\	.	.	1ee	-tis-	.
4B/	.	.	4b\	.	.	.	.	4B\	.	.	4b\	.	.	.	.	.
4c/	.	.	4a\	.	.	.	.	4c\	.	.	4a\	.	.	.	.	.
4A/	.	.	4cc\	.	.	.	.	4A\	.	.	4cc\	.	.	.	.	.
=53	=53	=53	=53	=53	=53	=53	=53	=53	=53	=53	=53	=53	=53	=53	=53	=53
4G#X/	1E_<	1ee]	4dd\	.	2E\	.	.	(<4G#X/	.	.	(>4dd\	.	.	2ee\	-si-	.
4B/	.	.	4b\	.	.	.	.	4B/)	.	.	4b\)	.	.	.	.	.
4A/	.	.	4cc\	.	2E\	.	.	(<4A/	.	.	(>4cc\	.	.	2ee\	-mus	.
4c/	.	.	4a\	.	.	.	.	4c/)	.	.	4a\)	.	.	.	.	.
*v	*v	*	*	*	*	*	*	*	*	*	*	*	*	*	*	*
=54	=54	=54	=54	=54	=54	=54	=54	=54	=54	=54	=54	=54	=54	=54	=54
1E] 1B	2.ee/	1g#X	.	2.E\	.	.	2.B\	.	.	2.g#X/	.	.	2.ee\	Je-	.
.	4dd/	.	.	4E\	.	.	4B\	.	.	4g#/	.	.	4dd\	-su	.
=55	=55	=55	=55	=55	=55	=55	=55	=55	=55	=55	=55	=55	=55	=55	=55
2A\ 2c	2cc/	1a	.	2A\	.	.	2c\	.	.	2a/	.	.	2cc\	Je-	.
2D\ 2d	2ff/	.	.	2D\	.	.	2d\	.	.	2a/	.	.	2ff\	-su	.
=56	=56	=56	=56	=56	=56	=56	=56	=56	=56	=56	=56	=56	=56	=56	=56
*^	*	*	*	*	*	*	*	*	*	*	*	*	*	*	*
4c/	1G	2.dd/	1gn	.	1G	.	.	(>4c\	.	.	1gn	.	.	(>2.dd\	chri-	.
8B/L	.	.	.	.	.	.	.	8B\L	.	.	.	.	.	.	.	.
8A/J	.	.	.	.	.	.	.	8A\J	.	.	.	.	.	.	.	.
2B/	.	.	.	.	.	.	.	2B\)	.	.	.	.	.	.	.	.
.	.	8ee/L	.	.	.	.	.	.	.	.	.	.	.	8ee\L	.	.
.	.	8dd/J	.	.	.	.	.	.	.	.	.	.	.	8dd\J)	.	.
*v	*v	*	*	*	*	*	*	*	*	*	*	*	*	*	*	*
*	*v	*v	*	*	*	*	*	*	*	*	*	*	*	*	*
=57	=57	=57	=57	=57	=57	=57	=57	=57	=57	=57	=57	=57	=57	=57
[<1C 1c	1e 1cc	.	4C/	.	.	4c\	.	.	4e/	.	.	4cc\	-ste	.
!	!	!	!	!	!	!	!	!	!	!	!	!LO:SIC:v:l:s=Cum	!	!
.	.	.	4C/	.	.	4c\	.	.	4e/	.	.	4cc\	Cun	.
.	.	.	4C/	.	.	4c\	.	.	4e/	.	.	4cc\	san-	.
.	.	.	4C/	.	.	4c\	.	.	4e/	.	.	4cc\	-cto	.
=58	=58	=58	=58	=58	=58	=58	=58	=58	=58	=58	=58	=58	=58	=58
*^	*^	*	*	*	*	*	*	*	*	*	*	*	*	*
4B/	1C_<	4g/	1f	.	4C/	.	.	4B\	.	.	4f/	.	.	4g/	spi-	.
8A/L	.	8a/L	.	.	4C/	.	.	8A\L	.	.	4f/	.	.	8a/L	-ri-	.
8G/J	.	8b/J	.	.	.	.	.	8G\J	.	.	.	.	.	8b/J	.	.
4A/	.	4cc/	.	.	4C/	.	.	4A\	.	.	4f/	.	.	4cc\	-tu	.
4B/	.	4dd/	.	.	4C/	.	.	4B\	.	.	4f/	.	.	4dd\	in	.
*v	*v	*	*	*	*	*	*	*	*	*	*	*	*	*	*	*
*	*v	*v	*	*	*	*	*	*	*	*	*	*	*	*	*
!!LO:LB:g=original
=59	=59	=59	=59	=59	=59	=59	=59	=59	=59	=59	=59	=59	=59	=59
!	!	!	!	!	!	!	!	!	!	!	!	!LO:TX:t=P:problem:korekta	!	!
2C\_< [>2c	4.e\ 4.ee	.	4.C/	.	.	4.c\	Glo-	.	4.e/	.	.	4.ee\	Glo-	.
.	8f\ 8dd	.	8C/	.	.	8d\	-ri-	.	8f/	.	.	8dd\	-ri-	.
4C\] 4c]	4e\ 4g 4cc	.	4C/	.	.	4e\	-ae	.	4g/	.	.	4cc\	-ae	.
4r	8cc\L	.	4r	.	.	4r	.	.	4r	.	.	8cc\	De-	.
.	8ee\J	.	.	.	.	.	.	.	.	.	.	8ee\	-i	.
=60	=60	=60	=60	=60	=60	=60	=60	=60	=60	=60	=60	=60	=60	=60
[<1CC [>1C	4gg\	.	4r	.	.	4r	.	.	4r	.	.	[>1gg	Pa-	.
.	4e\ 4cc	.	4C/	.	.	4c\	Cum	.	4e/	Cum	.	.	.	.
.	4e\ 4cc	.	4C/	.	.	4c\	san-	.	4e/	san-	.	.	.	.
.	4e\ 4cc	.	4C/	.	.	4c\	-cto	.	4e/	-cto	.	.	.	.
=61	=61	=61	=61	=61	=61	=61	=61	=61	=61	=61	=61	=61	=61	=61
1CC_< 1C_>	4f\ 4a	.	4C/	.	.	4A/	spi-	.	4f/	.	.	1gg_>	.	.
.	8g\L 8b	.	4C/	.	.	8B\L	-ri-	.	8g/L	.	.	.	.	.
.	8a\J 8cc	.	.	.	.	8c\J	.	.	8a/J	.	.	.	.	.
.	4b\ 4dd	.	4C/	.	.	4d\	-tu	.	4b\	.	.	.	.	.
.	8cc\L 8ee	.	4C/	.	.	8e\L	in	.	8cc\L	.	.	.	.	.
.	8dd\J 8ff	.	.	.	.	8f\J	.	.	8dd\J	.	.	.	.	.
=62	=62	=62	=62	=62	=62	=62	=62	=62	=62	=62	=62	=62	=62	=62
2CC/_< 2C_>	4.ee\ 4.gg	.	4.C/	.	.	(>4.g\	Glo-	.	(>4.ee\	.	.	2gg\]	.	.
.	8dd\ 8ff	.	8C/	.	.	8f\)	-ri-	.	8dd\)	.	.	.	.	.
8CC/] 8C]	8cc\ 8ee	.	8C/	.	.	8e\	-ae	.	8cc\	.	.	8ee\	-tris	.
8r	8r	.	8r	.	.	8r	.	.	8r	.	.	8r	.	.
4C\ 4c	4g\ 4ee	.	4C/	.	.	4c\	in	.	4a/	.	.	4ee\	in	.
=63	=63	=63	=63	=63	=63	=63	=63	=63	=63	=63	=63	=63	=63	=63
1A 1c#X	1g 1ee	.	2A\	.	.	2c#X\	Glo-	.	2g/	.	.	2ee\	Glo-	.
.	.	.	4A\	.	.	4c#\	-ri-	.	4g/	.	.	4ee\	-ri-	.
.	.	.	4A\	.	.	4c#\	-ae	.	4g/	.	.	4ee\	-ae	.
=64	=64	=64	=64	=64	=64	=64	=64	=64	=64	=64	=64	=64	=64	=64
2D\ 2d	2f\ 2ff	.	2D\	.	.	2d\	De-	.	2f/	.	.	2ff\	De-	.
2F\ 2d	2a\ 2dd	.	2F\	.	.	2d\	-i	.	2a/	.	.	2dd\	-i	.
=65	=65	=65	=65	=65	=65	=65	=65	=65	=65	=65	=65	=65	=65	=65
1G 1d	1f 1b	.	1G	.	.	1d	Pa-	.	1f	.	.	1b	Pa-	.
=66	=66	=66	=66	=66	=66	=66	=66	=66	=66	=66	=66	=66	=66	=66
2C\ 2c	2e/ 2cc	.	2C/	.	.	2c\	-tris	.	2e/	.	.	2cc\	-tris	.
2r	2r	.	2r	.	.	2r	.	.	2r	.	.	2r	.	.
=67	=67	=67	=67	=67	=67	=67	=67	=67	=67	=67	=67	=67	=67	=67
1C 1c	1g 1cc 1ee	.	1C	.	.	1c	A-	.	1g	.	.	1ee	A-	.
=68	=68	=68	=68	=68	=68	=68	=68	=68	=68	=68	=68	=68	=68	=68
2C\ 2c	2g\ 2cc 2ee	.	2C/	.	.	2c\	-men	.	2g/	.	.	2ee\	-men	.
2r	2r	.	2r	.	.	2r	.	.	2r	.	.	2r	.	.
!!LO:PB:g=original
==	==	==	==	==	==	==	==	==	==	==	==	==	==	==
*-	*-	*-	*-	*-	*-	*-	*-	*-	*-	*-	*-	*-	*-	*-
!!!system-decoration: s1,s2,s3,s4[(s5,s6)]
!!!RDF**kern: < = below
!!!RDF**kern: > = above
!!!AIN: 2 empty 2 soprn 1 tenor
!!!ENC: Marta Chmielewska
!!!END: 2021-05-27
!!!ENC: Katarzyna Serwa
!!!END: 2021-05-13
